X: 16
T: Boys Of The Lough, The
Z: Andrea Abler
S: https://thesession.org/tunes/343#setting53118
R: reel
M: 4/4
L: 1/8
K: Dmaj
dB|:"D"AF (3FFF A2 AB|defd "G"efdB|"D"AF (3FFF ABAF|"A"EDEF E2DF|
"D"AF (3FFF A2 AB|defd "G"efdB|"D"AF (3FFF BdAF|"A"EDEF D2"D"de:|
|:faag fgfe|"G"dBBA GBdB|"D"AF (3FFF ABde|fd"G"gf"A" e2fg|
"D"a2 ag fgfe|"G"dBBA GBdB|"D"AF (3FFF ABAF|"A"EDEF"D"D4:|

%-------------------- TUNE SEPARATOR --------------------%

